X:31
T:Crown Point
R:Reel
M:4/4
L:1/8
Q:116
K:D
|:(3ABc |\
"D" d2 d2 f2 a2 | "Em" gfed "A" c2 A2 | "D" dcde "Bm" fdgf | "Em" edcB "A" A2 (3ABc |!
"D" d2 f2 "A" A2 e2 | "A7" g2 A2 "D" f2 a2 | "Em" gfed "A" cABc | "D" d2f2 d2 :|!
|: d2  |\
"A" c2 cd e2 A2 | edef g4 | "D" f a2 f "Bm" d2 df | "E7" edcB "A" A2 (3ABc |!
"D" d2 f2 "A" A2 e2 | "A7" g2 A2 "D" f2 a2 | "Em" gfed "A" cABc | "D" d2f2 d2 :|
